themes/stellar/source/img/svg/76b86c0226ffd.svg

<?xml version="1.0" encoding="UTF-8"?>
<svg width="600px" height="300px" viewBox="0 0 600 300" version="1.1" xmlns="http://www.w3.org/2000/svg" xmlns:xlink="http://www.w3.org/1999/xlink">
    <title>Artboard</title>
    <defs>
        <filter x="-57.3%" y="-64.2%" width="214.6%" height="228.3%" filterUnits="objectBoundingBox" id="filter-1">
            <feOffset dx="0" dy="8" in="SourceAlpha" result="shadowOffsetOuter1"></feOffset>
            <feGaussianBlur stdDeviation="16" in="shadowOffsetOuter1" result="shadowBlurOuter1"></feGaussianBlur>
            <feColorMatrix values="0 0 0 0 0   0 0 0 0 0   0 0 0 0 0  0 0 0 0.1 0" type="matrix" in="shadowBlurOuter1" result="shadowMatrixOuter1"></feColorMatrix>
            <feMerge>
                <feMergeNode in="shadowMatrixOuter1"></feMergeNode>
                <feMergeNode in="SourceGraphic"></feMergeNode>
            </feMerge>
        </filter>
        <linearGradient x1="24.5647992%" y1="22.0196849%" x2="83.2382914%" y2="86.5183789%" id="linearGradient-2">
            <stop stop-color="#FFA936" offset="0%"></stop>
            <stop stop-color="#FF8548" offset="41.12%"></stop>
            <stop stop-color="#FF6C54" offset="77.81%"></stop>
            <stop stop-color="#FF6359" offset="100%"></stop>
        </linearGradient>
        <linearGradient x1="52.1635356%" y1="47.3109386%" x2="48.1832902%" y2="50.5149909%" id="linearGradient-3">
            <stop stop-color="#F82814" stop-opacity="0" offset="0%"></stop>
            <stop stop-color="#C0272D" offset="100%"></stop>
        </linearGradient>
        <linearGradient x1="17.6930901%" y1="30.2205849%" x2="92.208663%" y2="75.8392652%" id="linearGradient-4">
            <stop stop-color="#CDEC7A" offset="0%"></stop>
            <stop stop-color="#B0E995" offset="21.57%"></stop>
            <stop stop-color="#87E4BB" offset="56.13%"></stop>
            <stop stop-color="#6EE1D2" offset="83.47%"></stop>
            <stop stop-color="#65E0DB" offset="100%"></stop>
        </linearGradient>
        <linearGradient x1="64.844299%" y1="50.0001572%" x2="-13.9319472%" y2="50.0001572%" id="linearGradient-5">
            <stop stop-color="#CDEC7A" stop-opacity="0" offset="0%"></stop>
            <stop stop-color="#9AD57D" stop-opacity="0.235" offset="23.54%"></stop>
            <stop stop-color="#51B482" stop-opacity="0.604" offset="60.35%"></stop>
            <stop stop-color="#239F85" stop-opacity="0.868" offset="86.79%"></stop>
            <stop stop-color="#119786" offset="100%"></stop>
        </linearGradient>
        <linearGradient x1="49.9997886%" y1="55.5655779%" x2="49.9997886%" y2="-9.61206765%" id="linearGradient-6">
            <stop stop-color="#CDEC7A" stop-opacity="0" offset="0%"></stop>
            <stop stop-color="#9AD57D" stop-opacity="0.235" offset="23.54%"></stop>
            <stop stop-color="#51B482" stop-opacity="0.604" offset="60.35%"></stop>
            <stop stop-color="#239F85" stop-opacity="0.868" offset="86.79%"></stop>
            <stop stop-color="#119786" offset="100%"></stop>
        </linearGradient>
        <linearGradient x1="19.1207329%" y1="23.6097233%" x2="90.3145835%" y2="84.4537439%" id="linearGradient-7">
            <stop stop-color="#F8F6FB" offset="0%"></stop>
            <stop stop-color="#EFDCFB" offset="100%"></stop>
        </linearGradient>
        <linearGradient x1="19.5114299%" y1="16.100838%" x2="102.476314%" y2="108.346955%" id="linearGradient-8">
            <stop stop-color="#18CEFB" offset="0%"></stop>
            <stop stop-color="#2BB9F9" offset="29.69%"></stop>
            <stop stop-color="#42A0F7" offset="73.45%"></stop>
            <stop stop-color="#4A97F6" offset="100%"></stop>
        </linearGradient>
        <linearGradient x1="17.507958%" y1="41.2599773%" x2="82.4934443%" y2="98.1891953%" id="linearGradient-9">
            <stop stop-color="#CDEC7A" offset="0%"></stop>
            <stop stop-color="#B0E995" stop-opacity="0.784" offset="21.54%"></stop>
            <stop stop-color="#87E4BB" stop-opacity="0.439" offset="56.04%"></stop>
            <stop stop-color="#6EE1D2" stop-opacity="0.165" offset="83.34%"></stop>
            <stop stop-color="#65E0DB" stop-opacity="0" offset="99.85%"></stop>
        </linearGradient>
        <linearGradient x1="31.4601499%" y1="46.6272621%" x2="83.2701969%" y2="93.3196965%" id="linearGradient-10">
            <stop stop-color="#CDEC7A" offset="0%"></stop>
            <stop stop-color="#B0E995" offset="21.57%"></stop>
            <stop stop-color="#87E4BB" offset="56.13%"></stop>
            <stop stop-color="#6EE1D2" offset="83.47%"></stop>
            <stop stop-color="#65E0DB" offset="100%"></stop>
        </linearGradient>
        <linearGradient x1="25.157264%" y1="17.6806982%" x2="92.7571546%" y2="105.62918%" id="linearGradient-11">
            <stop stop-color="#FFD945" offset="0%"></stop>
            <stop stop-color="#FFCD3E" offset="30.43%"></stop>
            <stop stop-color="#FFAD2B" offset="85.58%"></stop>
            <stop stop-color="#FFA325" offset="100%"></stop>
        </linearGradient>
    </defs>
    <g id="Artboard" stroke="none" stroke-width="1" fill="none" fill-rule="evenodd">
        <rect fill="#F2F2F2" x="0" y="0" width="600" height="300"></rect>
        <g id="e45d2469cdeaf" filter="url(#filter-1)" transform="translate(233.000000, 90.000000)" fill-rule="nonzero">
            <path d="M111.599112,116.203177 L10.4688701,104.994802 C5.60654011,104.456053 2.10192974,100.077577 2.6406783,95.2152475 L11.9358555,11.3469178 C12.4748654,6.48458789 16.8533412,2.97971609 21.7154097,3.51872605 L122.845651,14.727101 C127.707981,15.266111 131.212853,19.6445867 130.673843,24.5066553 L121.378666,108.374985 C120.839917,113.237315 116.461441,116.742187 111.599112,116.203177 Z" id="Path" fill="url(#linearGradient-2)"></path>
            <path d="M130.673843,24.5069167 L127.008994,57.5830982 L118.863199,14.2861167 L122.847219,14.7273624 C127.707981,15.2653268 131.212068,19.6432797 130.673843,24.5069167 Z" id="Path" fill="url(#linearGradient-3)"></path>
            <path d="M126.093042,100.623907 L26.097545,119.435407 C21.289848,120.339856 16.6591198,117.17559 15.7546705,112.367893 L0.154226905,29.4406092 C-0.750222403,24.6329122 2.41404317,20.002184 7.22174021,19.0977347 L107.217238,0.28623468 C112.024934,-0.618214627 116.655663,2.54605094 117.560112,7.35374798 L133.160556,90.2810323 C134.065005,95.0889907 130.90074,99.7197187 126.093042,100.623907 Z" id="Path" fill="url(#linearGradient-4)"></path>
            <path d="M119.694717,18.7022342 L119.694717,101.827661 L126.092781,100.623907 C130.900478,99.7194576 134.064744,95.0887291 133.160294,90.2810323 L119.694717,18.7022342 Z" id="Path" fill="url(#linearGradient-5)"></path>
            <path d="M15.2789197,109.837526 L15.7549319,112.367893 C16.6593812,117.17559 21.2901094,120.339856 26.0978064,119.435407 L77.1168509,109.837526 L15.2789197,109.837526 Z" id="Path" fill="url(#linearGradient-6)"></path>
            <g id="Group" transform="translate(0.000000, 8.103446)">
                <path d="M110.836865,102.251393 L9.08762434,102.251393 C4.19549463,102.251393 0.229771949,98.2856698 0.229771949,93.3935405 L0.229771949,9.01155648 C0.229771949,4.11942678 4.19549463,0.153704102 9.08762434,0.153704102 L110.836865,0.153704102 C115.728995,0.153704102 119.694717,4.11942678 119.694717,9.01155648 L119.694717,93.3935405 C119.694717,98.2856698 115.728995,102.251393 110.836865,102.251393 Z" id="Path" fill="url(#linearGradient-7)"></path>
                <path d="M102.542333,93.928368 L17.3824178,93.928368 C13.2880856,93.928368 9.96880891,90.6090912 9.96880891,86.5147589 L9.96880891,15.8905993 C9.96880891,11.7962671 13.2880856,8.47699037 17.3824178,8.47699037 L102.542333,8.47699037 C106.636665,8.47699037 109.955941,11.7962671 109.955941,15.8905993 L109.955941,86.5147589 C109.955941,90.6090912 106.636665,93.928368 102.542333,93.928368 Z" id="Path" fill="url(#linearGradient-8)"></path>
                <g id="Path" transform="translate(9.933259, 35.289206)">
                    <path d="M55.9579651,58.6391606 L7.45046654,58.6391606 C3.3553501,58.6391606 0.0345050026,55.3209298 0.0345050026,51.2260747 L0.0345050026,39.6486006 L12.341812,24.6891135 C16.4034691,19.7478403 23.9637243,19.7478403 28.0282567,24.6891135 L35.6912427,34.0054642 L55.9579651,58.6391606 Z" fill="url(#linearGradient-9)"></path>
                    <path d="M100.023468,32.6098415 L100.023468,51.2260747 C100.023468,55.3211909 96.7026221,58.6391606 92.6075059,58.6391606 L15.4239975,58.6391606 L35.6909813,34.0054642 L60.588432,3.73961035 C64.6500888,-1.19878744 72.2132194,-1.19878744 76.2748766,3.73961035 L100.023468,32.6098415 Z" fill="url(#linearGradient-10)"></path>
                </g>
                <circle id="Oval" fill="url(#linearGradient-11)" cx="35.8708256" cy="26.3803814" r="10.5133083"></circle>
            </g>
        </g>
    </g>
</svg>

<svg width="600" height="300" viewBox="0 0 600 300" xmlns="http://www.w3.org/2000/svg"><defs><filter x="-57.3%" y="-64.2%" width="214.6%" height="228.3%" filterUnits="objectBoundingBox" id="a"><feOffset dy="8" in="SourceAlpha" result="shadowOffsetOuter1"/><feGaussianBlur stdDeviation="16" in="shadowOffsetOuter1" result="shadowBlurOuter1"/><feColorMatrix values="0 0 0 0 0 0 0 0 0 0 0 0 0 0 0 0 0 0 0.1 0" in="shadowBlurOuter1" result="shadowMatrixOuter1"/><feMerge><feMergeNode in="shadowMatrixOuter1"/><feMergeNode in="SourceGraphic"/></feMerge></filter><linearGradient x1="24.565%" y1="22.02%" x2="83.238%" y2="86.518%" id="b"><stop stop-color="#FFA936" offset="0%"/><stop stop-color="#FF8548" offset="41.12%"/><stop stop-color="#FF6C54" offset="77.81%"/><stop stop-color="#FF6359" offset="100%"/></linearGradient><linearGradient x1="52.164%" y1="47.311%" x2="48.183%" y2="50.515%" id="c"><stop stop-color="#F82814" stop-opacity="0" offset="0%"/><stop stop-color="#C0272D" offset="100%"/></linearGradient><linearGradient x1="17.693%" y1="30.221%" x2="92.209%" y2="75.839%" id="d"><stop stop-color="#CDEC7A" offset="0%"/><stop stop-color="#B0E995" offset="21.57%"/><stop stop-color="#87E4BB" offset="56.13%"/><stop stop-color="#6EE1D2" offset="83.47%"/><stop stop-color="#65E0DB" offset="100%"/></linearGradient><linearGradient x1="64.844%" y1="50%" x2="-13.932%" y2="50%" id="e"><stop stop-color="#CDEC7A" stop-opacity="0" offset="0%"/><stop stop-color="#9AD57D" stop-opacity=".235" offset="23.54%"/><stop stop-color="#51B482" stop-opacity=".604" offset="60.35%"/><stop stop-color="#239F85" stop-opacity=".868" offset="86.79%"/><stop stop-color="#119786" offset="100%"/></linearGradient><linearGradient x1="50%" y1="55.566%" x2="50%" y2="-9.612%" id="f"><stop stop-color="#CDEC7A" stop-opacity="0" offset="0%"/><stop stop-color="#9AD57D" stop-opacity=".235" offset="23.54%"/><stop stop-color="#51B482" stop-opacity=".604" offset="60.35%"/><stop stop-color="#239F85" stop-opacity=".868" offset="86.79%"/><stop stop-color="#119786" offset="100%"/></linearGradient><linearGradient x1="19.121%" y1="23.61%" x2="90.315%" y2="84.454%" id="g"><stop stop-color="#F8F6FB" offset="0%"/><stop stop-color="#EFDCFB" offset="100%"/></linearGradient><linearGradient x1="19.511%" y1="16.101%" x2="102.476%" y2="108.347%" id="h"><stop stop-color="#18CEFB" offset="0%"/><stop stop-color="#2BB9F9" offset="29.69%"/><stop stop-color="#42A0F7" offset="73.45%"/><stop stop-color="#4A97F6" offset="100%"/></linearGradient><linearGradient x1="17.508%" y1="41.26%" x2="82.493%" y2="98.189%" id="i"><stop stop-color="#CDEC7A" offset="0%"/><stop stop-color="#B0E995" stop-opacity=".784" offset="21.54%"/><stop stop-color="#87E4BB" stop-opacity=".439" offset="56.04%"/><stop stop-color="#6EE1D2" stop-opacity=".165" offset="83.34%"/><stop stop-color="#65E0DB" stop-opacity="0" offset="99.85%"/></linearGradient><linearGradient x1="31.46%" y1="46.627%" x2="83.27%" y2="93.32%" id="j"><stop stop-color="#CDEC7A" offset="0%"/><stop stop-color="#B0E995" offset="21.57%"/><stop stop-color="#87E4BB" offset="56.13%"/><stop stop-color="#6EE1D2" offset="83.47%"/><stop stop-color="#65E0DB" offset="100%"/></linearGradient><linearGradient x1="25.157%" y1="17.681%" x2="92.757%" y2="105.629%" id="k"><stop stop-color="#FFD945" offset="0%"/><stop stop-color="#FFCD3E" offset="30.43%"/><stop stop-color="#FFAD2B" offset="85.58%"/><stop stop-color="#FFA325" offset="100%"/></linearGradient></defs><g fill="none" fill-rule="evenodd"><path fill="#F2F2F2" d="M0 0h600v300H0z"/><g filter="url(#a)" transform="translate(233 90)" fill-rule="nonzero"><path d="M111.6 116.203L10.468 104.995a8.858 8.858 0 0 1-7.828-9.78l9.295-83.868a8.858 8.858 0 0 1 9.78-7.828l101.13 11.208a8.858 8.858 0 0 1 7.828 9.78l-9.295 83.868a8.857 8.857 0 0 1-9.78 7.828z" fill="url(#b)"/><path d="M130.674 24.507l-3.665 33.076-8.146-43.297 3.984.441c4.861.538 8.365 4.916 7.827 9.78z" fill="url(#c)"/><path d="M126.093 100.624l-99.995 18.811a8.858 8.858 0 0 1-10.343-7.067L.155 29.44a8.858 8.858 0 0 1 7.067-10.343L107.217.286a8.858 8.858 0 0 1 10.343 7.068l15.6 82.927a8.858 8.858 0 0 1-7.067 10.343z" fill="url(#d)"/><path d="M119.695 18.702v83.126l6.398-1.204a8.858 8.858 0 0 0 7.067-10.343l-13.465-71.579z" fill="url(#e)"/><path d="M15.279 109.838l.476 2.53a8.858 8.858 0 0 0 10.343 7.067l51.019-9.597H15.279z" fill="url(#f)"/><g transform="translate(0 8.103)"><path d="M110.837 102.251H9.087A8.858 8.858 0 0 1 .23 93.394V9.012A8.858 8.858 0 0 1 9.088.154h101.749a8.858 8.858 0 0 1 8.858 8.858v84.382a8.858 8.858 0 0 1-8.858 8.857z" fill="url(#g)"/><path d="M102.542 93.928h-85.16a7.414 7.414 0 0 1-7.413-7.413V15.89a7.414 7.414 0 0 1 7.413-7.414h85.16a7.414 7.414 0 0 1 7.414 7.414v70.624a7.414 7.414 0 0 1-7.414 7.413z" fill="url(#h)"/><path d="M55.958 58.64H7.45a7.414 7.414 0 0 1-7.415-7.414V39.65l12.307-14.96c4.061-4.941 11.622-4.941 15.686 0l7.663 9.316L55.958 58.64z" fill="url(#i)" transform="translate(9.933 35.29)"/><path d="M100.023 32.61v18.616a7.414 7.414 0 0 1-7.415 7.413H15.424l20.267-24.634L60.588 3.74C64.65-1.2 72.213-1.2 76.275 3.74l23.748 28.87z" fill="url(#j)" transform="translate(9.933 35.29)"/><circle fill="url(#k)" cx="35.871" cy="26.38" r="10.513"/></g></g></g></svg>
